X:1
T:Second Degree II - Etude 3
%%singleline true
%%SYMBOL_SCALE_FACTOR 2
%%BAR_OFFSET 0.3
%%score { 1 | 2 }
L:1/4
Q:1/4=80
M:4/4
I:linebreak $
K:C
V:1 treble stafflines=5
V:2 bass
V:1
    c g e g | c g e g | d g f g | d g f g |: (e2 c2) | (e2 c2) |
    (f2 d2) | (f2 d2) | (e2 c2) | (e2 c2) | (f2 d2) | (c e c2) :|
V:2
    C, G, E, G, | C, G, E, G, | D, G, F, G, | D, G, F, G, |: C, G, E, G, | C, G, E, G, |
    D, G, F, G, | D, G, F, G, | C, G, E, G, | C, G, E, G, | D, G, F, G, | C, G, C,2 :|
 